**kern	**kern	**dynam
*part1	*part1	*part1
*staff2	*staff1	*
*I"Piano	*	*
*clefF4	*clefG2	*
*k[b-]	*k[b-]	*
=1	=1	=1
*	*^	*
4AA))) 4C#X 4E	4A	2A	.
(8E 8c#X	(8e	.	pp
4.D) 4.F 4.A 4.d	4.a)	.	.
*	*v	*v	*
=	=	=
!	!LO:TX:b:t=sordina	!
4DD	(8dL	mp
.	8f	.
(8D	8aJ	.
4G) 4B- 4d	8ccL	.
.	8b-'J)	.
(8D	8r	.
=	=	=
4CC#X)	4r	p
8C#X	(8e	.
4E 4A 4c#X	8b-L	.
.	8aJ)	.
(8AA^	8r	.
=	=	=
.	(16qqa/LL	mf <
.	16qqb-/JJ	.
4DD)	8aL	.
.	8g	.
8E	8fJ)	.
4A 4c	(8eL	.
.	8a	.
8E	8ccJ)	.
=	=	=
4G#X 4d	4e 4g#X 4ee	[ ff >
8E	(8bn	.
4A 4c#X	4.e) 4.a 4.ee	.
8Gn	.	.
=	=	=
4DD [4F	(8ffL	] pp <
.	8a	.
8F] 8A 8d	8bnJ)	.
4EE [4E	(8ccL	.
.	8e)	.
8E] 8A 8c	8ccJ	.
=||	=||	=||
*M3/8	*M3/8	*
!	!LO:TX:b:i:t=armonioso	!LO:DY:a
4BBn 4A	(8d#XL 8bn	[ mp
.	8f#X	.
(8E 8Bn	8dnJ 8g#X	.
=||	=||	=||
*M6/8	*M6/8	*
4AA) 4E 4A	2c) 2a	.
*clefG2	*	*
(8e	.	.
4a;)	.	.
.	8r;	.
8r	(8a	.
=	=	=
*-	*-	*-
!!!system-decoration: {(s1,s2)}
